X:1
T:Title
%%score { ( 1 3 ) | ( 2 4 ) }
L:1/8
M:4/4
K:F
V:1 treble nm="Grand Piano"
V:3 treble 
V:2 bass 
V:4 bass 
V:1
 z4 z2[Q:1/4=114] c2 | c3 ^c [Fd]2 [DGB]2 | [CFA]4 [CEG]2 [CEG]2 | [CFc]2 [CEB]2 [CFA]2 [B,DG]2 | %4
[M:3/4] [A,F]4 E2 |[M:1/4] [CEG]2 |[M:4/4] [CEG]3 [=B,FG] [CG]2 [Ec]2 | [Ec]4 [EG]2 [Gc]2 | %8
 e3 d c2 =B2 |[M:3/4] [EGc]6 |[M:1/4] [Gc]2 |[M:4/4] [Fc]3 [G^c] [^Fd]2 B2 | [FA]4 [EG]2 G2 | %13
 F3 F B2 A2 |[M:3/4] d4 c2 |[M:1/4] [CGc]2 |[M:4/4] [Ff]2 [Fe]2 [Fd]2 [Ec]2 | [Fc]4 [CGB]2 [CFA]2 | %18
 [CDA]2 [B,DG]2 F2 E2 |[M:3/4] F6 |[M:1/4] c2 |[M:4/4] c2- [Fc-]2 [Gc-]2 [G,Ec-]2 | %22
 [A,Fc-]2 [Gc-]2 [Ac]2 c2 | d2 e2 f2 [Fd]2 |[M:3/4] d4 z2 |[M:1/4] [Gc]2 | %26
[M:4/4] [Ff]2 [Fe]2 [Fd]2 [Ec]2 | [Fc]4 [CGB]2 [CFA]2 | [CDA]2 [B,DG]2 [A,CF]2 [G,CE]2 | %29
[M:3/4] [A,CF]6 |] %30
V:2
 z4 z2 [F,A,F]2 | [F,A,F]3 [F,A,F] [B,,B,]2 B,,2 | C,4 C,2 B,2 | A,2 G,2 F,2 B,,2 | %4
[M:3/4] z2 z2 G,2 |[M:1/4] C,2 |[M:4/4] C,3 D, E,2 [C,G,]2 | [C,G,]4 [C,C]2 [E,C]2 | %8
 [G,CG]3 [G,FG] [G,EG]2 [G,DG]2 |[M:3/4][K:bass] C,6 |[M:1/4] z B, | %11
[M:4/4] [F,A,]3 [E,A,] [D,A,]2 [G,D]2 | [C,C]4 [C,C]2 [B,CE]2 | [A,C]3 [A,C] [G,CE]2 [F,CF]2 | %14
[M:3/4] [F,F]4- [F,A,F]2 |[M:1/4] E,2 |[M:4/4] [D,A,]2 [A,,C]2 [B,,B,]2 [C,G,]2 | [F,A,]4 E,2 F,2 | %18
 B,,2 B,,2 [C,A,C]2 [C,G,C]2 |[M:3/4] [F,A,C]6 |[M:1/4] [F,A,F]2 |[M:4/4] G,2 z2 z4 | %22
 z2 B,2 C2 [F,A,F]2 | B,2 C2 D2 [B,,B,]2 |[M:3/4] [B,F-]4 [F,A,F]2 |[M:1/4] [E,C]2 | %26
[M:4/4] [D,A,]2 [A,,C]2 [B,,B,]2 [C,G,]2 | [F,A,]4 E,2 F,2 | B,,2 B,,2 C,2 C,2 |[M:3/4] F,6 |] %30
V:3
 x8 | x8 | x8 | x8 |[M:3/4] C6 |[M:1/4] x2 |[M:4/4] x8 | x8 | x8 |[M:3/4] x6 |[M:1/4] C z | %11
[M:4/4] x8 | x8 | x8 |[M:3/4] x6 |[M:1/4] x2 |[M:4/4] x8 | x8 | x8 |[M:3/4] x6 |[M:1/4] x2 | %21
[M:4/4] E2 z2 z4 | x8 | F6 z2 |[M:3/4] z2 F,2 c2 |[M:1/4] x2 |[M:4/4] x8 | x8 | x8 |[M:3/4] x6 |] %30
V:4
 x8 | x8 | x8 | x8 |[M:3/4] C,6 |[M:1/4] x2 |[M:4/4] x8 | x8 | x8 |[M:3/4][K:bass] x6 | %10
[M:1/4] E,2 |[M:4/4] x8 | x8 | x8 |[M:3/4] B,4 z2 |[M:1/4] x2 |[M:4/4] x8 | x8 | x8 |[M:3/4] x6 | %20
[M:1/4] x2 |[M:4/4] C,2- [C,-A,]2 [C,B,]2 C,2 | F,6 z2 | B,,6 z2 |[M:3/4] F,2 z2 z2 |[M:1/4] x2 | %26
[M:4/4] x8 | x8 | x8 |[M:3/4] x6 |] %30

